X: 172
M: C|
L: 1/8
K: A
V: 1
e |\
a2ec fdec | bB-Bc edcB | [AA]A(GA) (FA)(EA) | BcdB c2AE |
E |\
V: 2 clef=bass middle=d
z |\
a2a2 d'2c'a | d'3c' b2e'2 | c'2c'2 d'2c'2 | b2e2 a2A2 |
c2A2 d2cA | d3c B2e2 | a2g2 a2d2 | e2E2 a2A |]
z |\
a2c'2 d'2c'2 | a=gfd e2e2 | a2^g2 =g2f2 | d2e2 a2A |]


